packages/foundations/assets/icons/functional/images/security/lock_open_28.svg

<svg width="28" height="28" viewBox="0 0 28 28" fill="none" xmlns="http://www.w3.org/2000/svg">
<g clip-path="url(#clip0_187_252)">
<path fill-rule="evenodd" clip-rule="evenodd" d="M13.9995 2.18604C17.0599 2.18604 19.6451 4.39224 20.0654 7.33376C20.1338 7.81215 19.8014 8.25537 19.323 8.32373C18.8446 8.39209 18.4014 8.0597 18.333 7.58131C18.0367 5.50783 16.1949 3.93604 13.9995 3.93604C11.6416 3.93604 9.62791 5.76069 9.62445 8.16676C9.62312 9.09041 9.62305 10.0141 9.62423 10.9378L20.1245 10.9378C21.5224 10.9378 22.7495 12.0618 22.7495 13.5628C22.7509 16.7711 22.7509 19.9795 22.7495 23.1878C22.7495 24.5858 21.5998 25.8128 20.1245 25.8128C16.0411 25.8143 11.9578 25.8143 7.87445 25.8128C6.47648 25.8128 5.24945 24.6893 5.24945 23.1878V13.5628C5.24945 12.1649 6.37334 10.9378 7.87445 10.9378V8.16676C7.87445 4.85815 10.6221 2.18604 13.9995 2.18604ZM20.1245 12.6878C12.4651 12.6878 8.38174 12.6878 7.87445 12.6878C7.2996 12.6878 6.99977 13.0416 6.99945 13.5628V23.1878C6.99945 23.6366 7.3587 24.0626 7.87445 24.0628C11.9577 24.0648 16.041 24.0648 20.1245 24.0628C20.5732 24.0628 20.9991 23.6994 20.9995 23.1878C21.0014 19.9795 21.0014 16.7712 20.9995 13.5628C20.9995 13.1141 20.642 12.6881 20.1245 12.6878ZM13.9995 15.3128C14.9659 15.3128 15.7495 16.0963 15.7495 17.0628C15.7495 17.7102 15.398 18.2755 14.8754 18.5782L14.8745 20.5743C14.8745 21.0575 14.4827 21.4493 13.9995 21.4493C13.5507 21.4493 13.1259 21.0886 13.1245 20.5743L13.1244 18.5787C12.6013 18.2761 12.2495 17.7106 12.2495 17.0628C12.2495 16.0963 13.033 15.3128 13.9995 15.3128Z" fill="#1A1C1F"/>
</g>
<defs>
<clipPath id="clip0_187_252">
<rect width="28" height="28" fill="white"/>
</clipPath>
</defs>
</svg>

<svg xmlns="http://www.w3.org/2000/svg" width="28" height="28" fill="none"><g clip-path="url(#a)"><path fill="#1A1C1F" fill-rule="evenodd" d="M14 2.186c3.06 0 5.645 2.206 6.065 5.148a.875.875 0 1 1-1.732.247C18.037 5.508 16.195 3.936 14 3.936c-2.358 0-4.372 1.825-4.376 4.23v2.772h10.5a2.625 2.625 0 0 1 2.626 2.625v9.625c0 1.398-1.15 2.625-2.625 2.625H7.875a2.625 2.625 0 0 1-2.626-2.625v-9.625a2.625 2.625 0 0 1 2.625-2.625V8.167c0-3.309 2.748-5.98 6.126-5.98m6.125 10.502H7.875c-.575 0-.875.354-.876.875v9.625c0 .449.36.875.875.875q6.126.003 12.25 0a.88.88 0 0 0 .876-.875v-9.625a.875.875 0 0 0-.875-.875m-6.126 2.625a1.75 1.75 0 0 1 .876 3.265v1.996a.875.875 0 0 1-1.75 0V18.58a1.75 1.75 0 0 1 .874-3.266" clip-rule="evenodd"/></g><defs><clipPath id="a"><path fill="#fff" d="M0 0h28v28H0z"/></clipPath></defs></svg>
